X: 13479
T: Flower Of The Flock, The
R: reel
M: 4/4
K: Gmajor
|:DEGA BG (3GGG|cABG AGEG|DEGA B2 ge|1 dBAc BGGE:|2 dBAc BGGe||
~g3 e dcBd|cABG AGEG|~g3 e d2 eg|a2 ab agef|
~g3 e dcBd|cABG AGEG|DEGA Bdge|dBAc BGGE||

